X:5143
T:Plains of Boyle
O:england
M:C|
L:1/8
K:D Mixolydian
FG|ADDF ADDA|BAGB ADDe|fedf ed^ce|dcAB cAFG|
ADDF ADDA|BAGB ADDe|fedB c2AG|F2D2 D2:|
fg|afdf gefe|dfed cAFG|AAfd AAgd|AAfd A2fg|
afdf gefe|dfed cAFG|A2FA dBAG|F2D2 D2:|


